dist/images/gr-primary-sprite.svg

<?xml version="1.0" encoding="UTF-8" standalone="no"?>
<svg width="200px" height="200px" viewBox="0 0 200 200" version="1.1" xmlns="http://www.w3.org/2000/svg" xmlns:xlink="http://www.w3.org/1999/xlink" xmlns:sketch="http://www.bohemiancoding.com/sketch/ns">
    <!-- Generator: Sketch 3.2 (9961) - http://www.bohemiancoding.com/sketch -->
    <title>Mobile Portrait</title>
    <desc>Created with Sketch.</desc>
    <defs></defs>
    <g id="Page-1" stroke="none" stroke-width="1" fill="none" fill-rule="evenodd" sketch:type="MSPage">
        <g id="Mobile-Portrait" sketch:type="MSArtboardGroup">
            <path d="M18.7736888,17.6809545 L14.3882932,13.2955341 C15.3400947,12.1057273 15.9090119,10.5965909 15.9090119,8.95454545 C15.9090119,5.11370455 12.7955182,2 8.95450594,2 C5.11368685,2 2,5.11370455 2,8.95454545 C2,12.7953864 5.11368685,15.9090909 8.95450594,15.9090909 C10.5965421,15.9090909 12.1056699,15.3399773 13.2954699,14.3881705 L17.6808654,18.7735909 C17.8317396,18.9244659 18.0295567,19 18.2271805,19 C18.4249976,19 18.6228146,18.9244659 18.7736888,18.7735909 C19.0754371,18.4720341 19.0754371,17.9825114 18.7736888,17.6809545 L18.7736888,17.6809545 Z M8.95450594,14.3636364 C5.96715928,14.3636364 3.54544576,11.9419091 3.54544576,8.95454545 C3.54544576,5.96718182 5.96715928,3.54545455 8.95450594,3.54545455 C11.9420458,3.54545455 14.3635661,5.96718182 14.3635661,8.95454545 C14.3635661,11.9419091 11.9420458,14.3636364 8.95450594,14.3636364 L8.95450594,14.3636364 Z" id="Shape" fill="#FFFFFF" sketch:type="MSShapeGroup"></path>
            <path d="M30,2 C25.0291452,2 21,6.02986458 21,10.9995366 C21,15.9701354 25.0291452,20 30,20 C34.9708548,20 39,15.9701354 39,10.9995366 C39,6.02986458 34.9708548,2 30,2 L30,2 Z M30.0436301,18.2 C26.0674897,18.2 22.8441,14.9766103 22.8441,10.9995301 C22.8441,7.02338968 26.0674897,3.8 30.0436301,3.8 C34.0207103,3.8 37.2441,7.02338968 37.2441,10.9995301 C37.2441,14.9766103 34.0207103,18.2 30.0436301,18.2 Z M26.6647676,11.6748364 C26.3117441,11.3324077 26.3117441,10.7764646 26.6647676,10.4332302 C27.0302214,10.0787158 27.6011912,10.0787158 27.9542147,10.4211445 L29.0414605,11.4790477 L32.0471319,8.5567209 C32.3993266,8.2142922 32.9711251,8.2142922 33.3233199,8.55752662 C33.687945,8.91284675 33.687945,9.4679841 33.3357503,9.81041281 L29.5428201,13.4981685 C29.2660365,13.7672772 28.8168846,13.7672772 28.540101,13.4981685 L26.6647676,11.6748364 Z" id="checkocircle" fill="#FFFFFF" sketch:type="MSShapeGroup"></path>
            <path d="M30,2 C25.0291452,2 21,6.02986458 21,10.9995366 C21,15.9701354 25.0291452,20 30,20 C34.9708548,20 39,15.9701354 39,10.9995366 C39,6.02986458 34.9708548,2 30,2 L30,2 Z M30.0436301,18.2 C26.0674897,18.2 22.8441,14.9766103 22.8441,10.9995301 C22.8441,7.02338968 26.0674897,3.8 30.0436301,3.8 C34.0207103,3.8 37.2441,7.02338968 37.2441,10.9995301 C37.2441,14.9766103 34.0207103,18.2 30.0436301,18.2 Z M26.6647676,11.6748364 C26.3117441,11.3324077 26.3117441,10.7764646 26.6647676,10.4332302 C27.0302214,10.0787158 27.6011912,10.0787158 27.9542147,10.4211445 L29.0414605,11.4790477 L32.0471319,8.5567209 C32.3993266,8.2142922 32.9711251,8.2142922 33.3233199,8.55752662 C33.687945,8.91284675 33.687945,9.4679841 33.3357503,9.81041281 L29.5428201,13.4981685 C29.2660365,13.7672772 28.8168846,13.7672772 28.540101,13.4981685 L26.6647676,11.6748364 Z" id="checkocircle-2" fill="#FFFFFF" sketch:type="MSShapeGroup"></path>
            <g id="stars" sketch:type="MSLayerGroup" transform="translate(40.000000, 2.000000)" fill="#FFFFFF">
                <path d="M93.5,0 C93.8,0 94.1,0.2 94.2,0.6 L95.6,5 C95.8,5.5 96.2,5.8 96.7,5.8 L101.2,5.8 C102,5.8 102.3,6.8 101.7,7.3 L98.1,10 C97.7,10.3 97.5,10.8 97.7,11.3 L99.1,15.7 C99.3,16.5 98.5,17.1 97.9,16.6 L94.3,13.9 C93.9,13.6 93.4,13.6 93,13.9 L89.4,16.6 C88.8,17.1 87.9,16.4 88.2,15.7 L89.6,11.3 C89.8,10.8 89.6,10.3 89.2,10 L85.6,7.3 C85,6.8 85.3,5.8 86.1,5.8 L90.6,5.8 C91.1,5.8 91.5,5.5 91.7,5 L93.1,0.6 C92.9,0.2 93.2,0 93.5,0 L72.5,0 C72.8,0 73.1,0.2 73.2,0.6 L74.6,5 C74.8,5.5 75.2,5.8 75.7,5.8 L80.2,5.8 C81,5.8 81.3,6.8 80.7,7.3 L77.1,10 C76.7,10.3 76.5,10.8 76.7,11.3 L78.1,15.7 C78.3,16.5 77.5,17.1 76.9,16.6 L73.3,13.9 C72.9,13.6 72.4,13.6 72,13.9 L68.4,16.6 C67.8,17.1 66.9,16.4 67.2,15.7 L68.6,11.3 C68.8,10.8 68.6,10.3 68.2,10 L64.6,7.3 C64,6.8 64.3,5.8 65.1,5.8 L69.6,5.8 C70.1,5.8 70.5,5.5 70.7,5 L72.1,0.6 C71.9,0.2 72.2,0 72.5,0 L51.5,0 C51.8,0 52.1,0.2 52.2,0.6 L53.6,5 C53.8,5.5 54.2,5.8 54.7,5.8 L59.2,5.8 C60,5.8 60.3,6.8 59.7,7.3 L56.1,10 C55.7,10.3 55.5,10.8 55.7,11.3 L57.1,15.7 C57.3,16.5 56.5,17.1 55.9,16.6 L52.3,13.9 C51.9,13.6 51.4,13.6 51,13.9 L47.4,16.6 C46.8,17.1 45.9,16.4 46.2,15.7 L47.6,11.3 C47.8,10.8 47.6,10.3 47.2,10 L43.6,7.3 C43,6.8 43.3,5.8 44.1,5.8 L48.6,5.8 C49.1,5.8 49.5,5.5 49.7,5 L51.1,0.6 C50.9,0.2 51.2,0 51.5,0 L30.5,0 C30.8,0 31.1,0.2 31.2,0.6 L32.6,5 C32.8,5.5 33.2,5.8 33.7,5.8 L38.2,5.8 C39,5.8 39.3,6.8 38.7,7.3 L35.1,10 C34.7,10.3 34.5,10.8 34.7,11.3 L36.1,15.7 C36.3,16.5 35.5,17.1 34.9,16.6 L31.3,13.9 C30.9,13.6 30.4,13.6 30,13.9 L26.4,16.6 C25.8,17.1 24.9,16.4 25.2,15.7 L26.6,11.3 C26.8,10.8 26.6,10.3 26.2,10 L22.6,7.3 C22,6.8 22.3,5.8 23.1,5.8 L27.6,5.8 C28.1,5.8 28.5,5.5 28.7,5 L30.1,0.6 C29.9,0.2 30.2,0 30.5,0 L9.5,0 C9.8,0 10.1,0.2 10.2,0.6 L11.6,5 C11.8,5.5 12.2,5.8 12.7,5.8 L17.2,5.8 C18,5.8 18.3,6.8 17.7,7.3 L14.1,10 C13.7,10.3 13.5,10.8 13.7,11.3 L15.1,15.7 C15.3,16.5 14.5,17.1 13.9,16.6 L10.3,13.9 C9.9,13.6 9.4,13.6 9,13.9 L5.4,16.6 C4.8,17.1 3.9,16.4 4.2,15.7 L5.6,11.3 C5.8,10.8 5.6,10.3 5.2,10 L1.3,7.4 C0.7,6.9 1,5.8 1.8,5.8 L6.3,5.8 C6.8,5.8 7.2,5.5 7.4,5 L8.8,0.6 C8.9,0.2 9.2,0 9.5,0 L1,0 L1,17 L102,17 L102,0 L93.5,0 L93.5,0 Z" id="Shape" sketch:type="MSShapeGroup"></path>
            </g>
            <g id="Rectangle-1-+-Rectangle-1-+-Rectangle-1" sketch:type="MSLayerGroup" transform="translate(147.000000, 2.000000)" fill="#FFFFFF">
                <rect id="Rectangle-1" sketch:type="MSShapeGroup" x="0" y="0" width="20" height="3"></rect>
                <rect id="Rectangle-1" sketch:type="MSShapeGroup" x="0" y="7" width="20" height="3"></rect>
                <rect id="Rectangle-1" sketch:type="MSShapeGroup" x="0" y="14" width="20" height="3"></rect>
            </g>
            <path d="M14.0396017,45.0856279 C14.0396017,46.7900894 12.6793825,48.1722788 11.0030205,48.1722788 C9.32565164,48.1722788 7.96543237,46.7900894 7.96543237,45.0856279 C7.96543237,43.3811663 9.32565164,42 11.0030205,42 C12.6793825,42 14.0396017,43.3811663 14.0396017,45.0856279 L14.0396017,45.0856279 Z M6.16221054,50.7668253 L6.68072491,56.6229705 C6.72099787,57.0741515 7.08446135,57.4250701 7.52947757,57.4434856 L7.91307753,57.4588319 C8.22015885,57.472132 8.46783757,57.7176727 8.48696722,58.029714 L8.9511131,64.1784618 C8.98635194,64.6419198 9.36693142,65 9.82503636,65 L12.2021479,65 C12.6602528,65 13.0418391,64.6419198 13.0760711,64.1774387 L13.5371966,58.0245985 C13.5583399,57.7146034 13.8050117,57.4711089 14.1100794,57.4588319 L14.4916657,57.4424625 C14.9296342,57.424047 15.2870567,57.0782439 15.3263229,56.6342245 L15.8418168,50.7668253 C15.8418168,49.9862106 15.2185927,49.3518972 14.4493791,49.3518972 L7.55565499,49.3518972 C6.78644144,49.3518972 6.16221054,49.9862106 6.16221054,50.7668253 L6.16221054,50.7668253 Z M17.0500056,50.7668253 L16.5294776,56.7426716 C16.4519521,57.6184333 15.8508782,58.3366398 15.0534735,58.5811574 C14.8601633,58.6404964 14.6839691,58.8461367 14.6668531,59.050754 L14.3778946,62.3266759 C14.3436626,62.7144255 14.644703,63.0479516 15.0272961,63.0479516 L16.8063542,63.0479516 C17.208077,63.0479516 17.5423425,62.7338642 17.5725473,62.3256528 L17.9772905,56.9268271 C17.9964202,56.6546862 18.2128873,56.4418843 18.4807025,56.4306303 L18.8149681,56.4163071 C19.1995749,56.3999377 19.5126972,56.0960811 19.5469292,55.7062853 L20,50.5581157 C20,49.872648 19.4522877,49.3171122 18.7777156,49.3171122 L17.3540665,49.3171122 C17.0379237,49.3171122 16.8164224,49.6311997 16.916098,49.9360794 C17.0026849,50.1969663 17.0500056,50.4762688 17.0500056,50.7668253 L17.0500056,50.7668253 Z M15.3917664,42.8931542 C15.0665623,42.9412393 14.8702316,43.2849962 14.9870232,43.5970375 C15.4723123,44.8871491 15.3061864,46.2406921 14.6084573,47.3558561 C14.4312563,47.6392509 14.570198,48.0137005 14.8813066,48.1262399 C16.7016445,48.7810151 18.615617,47.3006094 18.4223067,45.300476 C18.2783309,43.804724 16.9171048,42.6680753 15.3917664,42.8931542 L15.3917664,42.8931542 Z M5.08289518,49.9360794 C5.18357758,49.6311997 4.96106947,49.3171122 4.64492673,49.3171122 L3.22228437,49.3171122 C2.54670545,49.3171122 2,49.872648 2,50.5581157 L2.45206399,55.7062853 C2.48629601,56.0960811 2.79941828,56.3999377 3.18503188,56.4163071 L3.51929746,56.4306303 C3.78711265,56.4418843 4.00357982,56.6546862 4.02170265,56.9268271 L4.42644591,62.3256528 C4.45665063,62.7338642 4.79091621,63.0479516 5.19364582,63.0479516 L6.97169706,63.0479516 C7.35529701,63.0479516 7.65533057,62.7144255 7.62109856,62.3266759 L7.33314688,59.050754 C7.31502405,58.8461367 7.13882985,58.6404964 6.94551963,58.5811574 C6.148115,58.3366398 5.54704106,57.6184333 5.46951561,56.7426716 L4.94898758,50.7668253 C4.94898758,50.4762688 4.99630831,50.1969663 5.08289518,49.9360794 L5.08289518,49.9360794 Z M3.57668643,45.300476 C3.38438304,47.3006094 5.29835552,48.7810151 7.11768654,48.1262399 C7.42980199,48.0137005 7.56773688,47.6392509 7.39053585,47.3558561 C6.6928068,46.2406921 6.52668084,44.8871491 7.01197002,43.5970375 C7.12976843,43.2849962 6.93243092,42.9412393 6.60823358,42.8931542 C5.08289518,42.6680753 3.72066227,43.804724 3.57668643,45.300476 L3.57668643,45.300476 Z" id="group" fill="#48626C" sketch:type="MSShapeGroup"></path>
            <path d="M17.7101029,30.1961135 L11.4258531,30.1961135 C10.7468786,30.1961135 10.1957305,30.7464561 10.1957305,31.425461 L10.1957305,37.7083318 C10.1957305,38.1017895 9.85209305,38.3948075 9.46031312,38.3599441 C5.20302649,37.9805979 1.88202751,34.3473404 2.00321368,29.9636912 C2.12190972,25.6871223 5.68694112,22.1219313 9.96331871,22.00323 C14.3650327,21.8812083 18.0114082,25.2314087 18.3641762,29.5146183 C18.3940577,29.8856638 18.0819618,30.1961135 17.7101029,30.1961135 L17.7101029,30.1961135 Z M19.2539815,31.8421609 L12.6709165,31.8421609 C12.2127332,31.8421609 11.8417043,32.2132063 11.8417043,32.6705801 L11.8417043,39.2547697 C11.8417043,39.7005223 12.2318241,40.0408549 12.6758967,39.9960306 C16.5364232,39.6067234 19.6059194,36.5370898 19.9960392,32.6755606 C20.0408615,32.2322982 19.6997141,31.8421609 19.2539815,31.8421609 L19.2539815,31.8421609 Z" id="piechart" fill="#48626C" sketch:type="MSShapeGroup"></path>
            <path d="M7.01894317,72.2127247 C6.51246261,72.2127247 6.10169492,71.7830039 6.10169492,71.2541969 L6.10169492,68.9585279 C6.10169492,68.4286779 6.51246261,68 7.01894317,68 C7.52442672,68 7.93519442,68.4286779 7.93519442,68.9585279 L7.93519442,71.2541969 C7.93519442,71.7830039 7.52442672,72.2127247 7.01894317,72.2127247 L7.01894317,72.2127247 Z M14.9491525,71.2541969 L14.9491525,68.9585279 C14.9491525,68.4286779 14.5393819,68 14.0329013,68 C13.5274177,68 13.11665,68.4286779 13.11665,68.9585279 L13.11665,71.2541969 C13.11665,71.7830039 13.5274177,72.2127247 14.0329013,72.2127247 C14.5393819,72.2127247 14.9491525,71.7830039 14.9491525,71.2541969 L14.9491525,71.2541969 Z M18,70.8933148 L18,87.4876329 C18,88.3230853 17.3529412,89 16.555334,89 L4.444666,89 C3.64705882,89 3,88.3230853 3,87.4876329 L3,70.8933148 C3,70.0589053 3.64705882,69.3819907 4.444666,69.3819907 L4.84745763,69.3819907 C5.12063809,69.3819907 5.34297109,69.6145823 5.34297109,69.9003675 L5.34297109,71.2458528 C5.34297109,72.3076388 6.24825523,73.1483063 7.29511466,72.9709943 C8.11665005,72.8312308 8.68594217,72.0228966 8.68594217,71.1530247 L8.68594217,69.9003675 C8.68594217,69.6145823 8.90827517,69.3819907 9.18145563,69.3819907 L11.8733799,69.3819907 C12.1475573,69.3819907 12.3688933,69.6145823 12.3688933,69.9003675 L12.3688933,71.2458528 C12.3688933,72.3076388 13.2741775,73.1483063 14.3220339,72.9709943 C15.1435693,72.8312308 15.7118644,72.0228966 15.7118644,71.1519817 L15.7118644,69.9003675 C15.7118644,69.6145823 15.9341974,69.3819907 16.2083749,69.3819907 L16.555334,69.3819907 C17.3529412,69.3819907 18,70.0589053 18,70.8933148 L18,70.8933148 Z M11.9651047,84.0196186 C11.9651047,83.5596503 11.6091725,83.1872951 11.1694915,83.1872951 L6.78065803,83.1872951 C6.34097707,83.1872951 5.98404786,83.5596503 5.98404786,84.0196186 C5.98404786,84.4795868 6.34097707,84.852985 6.78065803,84.852985 L11.1694915,84.852985 C11.6091725,84.852985 11.9651047,84.4795868 11.9651047,84.0196186 L11.9651047,84.0196186 Z M15.0159521,80.4963246 C15.0159521,80.0353134 14.6600199,79.6629582 14.220339,79.6629582 L6.78065803,79.6629582 C6.34097707,79.6629582 5.98404786,80.0353134 5.98404786,80.4963246 C5.98404786,80.9562928 6.34097707,81.3286481 6.78065803,81.3286481 L14.220339,81.3286481 C14.6600199,81.3286481 15.0159521,80.9562928 15.0159521,80.4963246 L15.0159521,80.4963246 Z M15.0159521,76.9365253 C15.0159521,76.4765571 14.6600199,76.1042018 14.220339,76.1042018 L6.78065803,76.1042018 C6.34097707,76.1042018 5.98404786,76.4765571 5.98404786,76.9365253 C5.98404786,77.3975365 6.34097707,77.7698917 6.78065803,77.7698917 L14.220339,77.7698917 C14.6600199,77.7698917 15.0159521,77.3975365 15.0159521,76.9365253 L15.0159521,76.9365253 Z" id="notepad" fill="#48626C" sketch:type="MSShapeGroup"></path>
        </g>
    </g>
</svg>

<svg width="200" height="200" viewBox="0 0 200 200" xmlns="http://www.w3.org/2000/svg"><title>Mobile Portrait</title><g fill="none" fill-rule="evenodd"><path d="M18.774 17.681l-4.386-4.385a6.954 6.954 0 1 0-1.093 1.093l4.386 4.385a.77.77 0 0 0 1.093 0 .773.773 0 0 0 0-1.093zm-9.82-3.317a5.41 5.41 0 1 1 0-10.819 5.41 5.41 0 0 1 0 10.819zM30 2a9 9 0 1 0 0 18 9 9 0 0 0 0-18zm.044 16.2a7.2 7.2 0 1 1 0-14.4 7.2 7.2 0 0 1 0 14.4zm-3.38-6.525a.86.86 0 0 1 0-1.242.926.926 0 0 1 1.29-.012l1.087 1.058 3.006-2.922a.92.92 0 0 1 1.276 0c.365.356.365.911.013 1.253l-3.793 3.688a.724.724 0 0 1-1.003 0l-1.875-1.823z" fill="#FFF"/><path d="M30 2a9 9 0 1 0 0 18 9 9 0 0 0 0-18zm.044 16.2a7.2 7.2 0 1 1 0-14.4 7.2 7.2 0 0 1 0 14.4zm-3.38-6.525a.86.86 0 0 1 0-1.242.926.926 0 0 1 1.29-.012l1.087 1.058 3.006-2.922a.92.92 0 0 1 1.276 0c.365.356.365.911.013 1.253l-3.793 3.688a.724.724 0 0 1-1.003 0l-1.875-1.823zM133.5 2c.3 0 .6.2.7.6l1.4 4.4c.2.5.6.8 1.1.8h4.5c.8 0 1.1 1 .5 1.5l-3.6 2.7c-.4.3-.6.8-.4 1.3l1.4 4.4c.2.8-.6 1.4-1.2.9l-3.6-2.7c-.4-.3-.9-.3-1.3 0l-3.6 2.7c-.6.5-1.5-.2-1.2-.9l1.4-4.4c.2-.5 0-1-.4-1.3l-3.6-2.7c-.6-.5-.3-1.5.5-1.5h4.5c.5 0 .9-.3 1.1-.8l1.4-4.4c-.2-.4.1-.6.4-.6h-21c.3 0 .6.2.7.6l1.4 4.4c.2.5.6.8 1.1.8h4.5c.8 0 1.1 1 .5 1.5l-3.6 2.7c-.4.3-.6.8-.4 1.3l1.4 4.4c.2.8-.6 1.4-1.2.9l-3.6-2.7c-.4-.3-.9-.3-1.3 0l-3.6 2.7c-.6.5-1.5-.2-1.2-.9l1.4-4.4c.2-.5 0-1-.4-1.3l-3.6-2.7c-.6-.5-.3-1.5.5-1.5h4.5c.5 0 .9-.3 1.1-.8l1.4-4.4c-.2-.4.1-.6.4-.6h-21c.3 0 .6.2.7.6L93.6 7c.2.5.6.8 1.1.8h4.5c.8 0 1.1 1 .5 1.5L96.1 12c-.4.3-.6.8-.4 1.3l1.4 4.4c.2.8-.6 1.4-1.2.9l-3.6-2.7c-.4-.3-.9-.3-1.3 0l-3.6 2.7c-.6.5-1.5-.2-1.2-.9l1.4-4.4c.2-.5 0-1-.4-1.3l-3.6-2.7c-.6-.5-.3-1.5.5-1.5h4.5c.5 0 .9-.3 1.1-.8l1.4-4.4c-.2-.4.1-.6.4-.6h-21c.3 0 .6.2.7.6L72.6 7c.2.5.6.8 1.1.8h4.5c.8 0 1.1 1 .5 1.5L75.1 12c-.4.3-.6.8-.4 1.3l1.4 4.4c.2.8-.6 1.4-1.2.9l-3.6-2.7c-.4-.3-.9-.3-1.3 0l-3.6 2.7c-.6.5-1.5-.2-1.2-.9l1.4-4.4c.2-.5 0-1-.4-1.3l-3.6-2.7c-.6-.5-.3-1.5.5-1.5h4.5c.5 0 .9-.3 1.1-.8l1.4-4.4c-.2-.4.1-.6.4-.6h-21c.3 0 .6.2.7.6L51.6 7c.2.5.6.8 1.1.8h4.5c.8 0 1.1 1 .5 1.5L54.1 12c-.4.3-.6.8-.4 1.3l1.4 4.4c.2.8-.6 1.4-1.2.9l-3.6-2.7c-.4-.3-.9-.3-1.3 0l-3.6 2.7c-.6.5-1.5-.2-1.2-.9l1.4-4.4c.2-.5 0-1-.4-1.3l-3.9-2.6c-.6-.5-.3-1.6.5-1.6h4.5c.5 0 .9-.3 1.1-.8l1.4-4.4c.1-.4.4-.6.7-.6H41v17h101V2h-8.5z" fill="#FFF"/><g fill="#FFF"><path d="M147 2h20v3h-20zM147 9h20v3h-20zM147 16h20v3h-20z"/></g><path d="M14.04 45.086c0 1.704-1.36 3.086-3.037 3.086-1.677 0-3.038-1.382-3.038-3.086 0-1.705 1.36-3.086 3.038-3.086 1.676 0 3.037 1.381 3.037 3.086zm-7.878 5.68l.519 5.857c.04.451.403.802.848.82l.384.016a.604.604 0 0 1 .574.57l.464 6.15a.882.882 0 0 0 .874.821h2.377c.458 0 .84-.358.874-.823l.461-6.152a.602.602 0 0 1 .573-.566l.382-.017a.881.881 0 0 0 .834-.808l.516-5.867c0-.78-.623-1.415-1.393-1.415H7.556c-.77 0-1.394.634-1.394 1.415zm10.888 0l-.52 5.977a2.116 2.116 0 0 1-1.477 1.838.583.583 0 0 0-.386.47l-.29 3.276a.658.658 0 0 0 .65.721h1.78a.773.773 0 0 0 .766-.722l.404-5.4a.53.53 0 0 1 .504-.495l.334-.015a.773.773 0 0 0 .732-.71L20 50.558c0-.685-.548-1.24-1.222-1.24h-1.424a.468.468 0 0 0-.438.618c.087.261.134.54.134.83zm-1.658-7.873a.523.523 0 0 0-.405.704 4.206 4.206 0 0 1-.379 3.759.527.527 0 0 0 .273.77c1.82.655 3.735-.825 3.541-2.826-.144-1.495-1.505-2.632-3.03-2.407zm-10.31 7.043a.468.468 0 0 0-.437-.619H3.222c-.675 0-1.222.556-1.222 1.241l.452 5.148c.034.39.347.694.733.71l.334.015a.528.528 0 0 1 .503.496l.404 5.399c.03.408.365.722.768.722h1.778a.658.658 0 0 0 .65-.721l-.289-3.276a.586.586 0 0 0-.387-.47 2.116 2.116 0 0 1-1.476-1.838l-.521-5.976c0-.29.047-.57.134-.83zM3.578 45.3c-.193 2 1.721 3.481 3.54 2.826a.527.527 0 0 0 .274-.77 4.206 4.206 0 0 1-.379-3.759.523.523 0 0 0-.404-.704c-1.525-.225-2.887.912-3.031 2.407zM17.71 30.196h-6.284c-.68 0-1.23.55-1.23 1.23v6.282a.663.663 0 0 1-.736.652 8.197 8.197 0 0 1-7.457-8.396c.119-4.277 3.684-7.842 7.96-7.96a8.197 8.197 0 0 1 8.401 7.51c.03.372-.282.682-.654.682zm1.544 1.646h-6.583a.829.829 0 0 0-.83.829v6.584c0 .446.39.786.835.741a8.198 8.198 0 0 0 7.32-7.32.752.752 0 0 0-.742-.834zM7.019 72.213c-.507 0-.917-.43-.917-.959V68.96c0-.53.41-.959.917-.959.505 0 .916.429.916.959v2.295c0 .529-.41.959-.916.959zm7.93-.959V68.96c0-.53-.41-.959-.916-.959s-.916.429-.916.959v2.295c0 .529.41.959.916.959s.916-.43.916-.959zm3.051-.36v16.594c0 .835-.647 1.512-1.445 1.512H4.445C3.647 89 3 88.323 3 87.488V70.893c0-.834.647-1.511 1.445-1.511h.402c.274 0 .496.233.496.518v1.346c0 1.062.905 1.902 1.952 1.725.822-.14 1.39-.948 1.39-1.818V69.9c0-.285.223-.518.496-.518h2.692c.275 0 .496.233.496.518v1.346c0 1.062.905 1.902 1.953 1.725.822-.14 1.39-.948 1.39-1.819V69.9c0-.285.222-.518.496-.518h.347c.798 0 1.445.677 1.445 1.511zM11.965 84.02c0-.46-.356-.833-.796-.833H6.781c-.44 0-.797.373-.797.833 0 .46.357.833.797.833h4.388c.44 0 .796-.373.796-.833zm3.051-3.524c0-.46-.356-.833-.796-.833H6.78c-.439 0-.796.372-.796.833 0 .46.357.833.797.833h7.44c.439 0 .795-.373.795-.833zm0-3.56c0-.46-.356-.832-.796-.832H6.78c-.439 0-.796.373-.796.833 0 .46.357.833.797.833h7.44c.439 0 .795-.372.795-.833z" fill="#48626C"/></g></svg>
